X:65
T:Celebrated Set Of Quadrilles No.5. Le4.065, A
T:My Love is But a Lassie Yet,aka. Le4.065
B:L.Leadley MS#4 c1850
Z:Village Music Project, 2016 Steve Mansfield
M:2/4
L:1/8
Q:2/4=60
N:* = added by transcriber
K:D
f/e/ | dDFA | dB Af/e/ | dDFA | BE Ef/e/ |
dDFA | dgfe | d/c/B/A/ B/d/c/e/ | dDD H :|
f/g/ | a>fg>e | fd Af/g/ | a>fg>e | fd ef/g/ |
a>fg>e | fd ef/e/ | d/c/B/A/ Bc | dDD f/g/ |
a/^g/a/f/ =g/f/g/f/ | f/e/f/d/ ef/g/ | a/^g/a/f/ =g/f/g/e/ | fd ef/g/ |
a/^g/a/f/ "*"=g/e/g/e/ | f/d/f/d/ e/g/f/e/ | d/c/B/A/ (3B/c/d/ (3c/d/e/ | dDD !D.C.! |]

